svg/emoji_u1fae4.svg

<svg width="128" height="128" viewBox="0 0 128 128" fill="none" xmlns="http://www.w3.org/2000/svg">
<path d="M63.6001 118.8C35.7001 118.8 5.6001 101.3 5.6001 62.9C5.6001 24.5 35.7001 7 63.6001 7C79.1001 7 93.4001 12.1 104 21.4C115.5 31.6 121.6 46 121.6 62.9C121.6 79.8 115.5 94.1 104 104.3C93.4001 113.6 79.0001 118.8 63.6001 118.8Z" fill="url(#paint0_radial_2452_412)" style=""/>
<path d="M111.49 29.6699C116.82 38.2699 119.6 48.5099 119.6 59.8999C119.6 76.7999 113.5 91.0999 102 101.3C91.4002 110.6 77.0002 115.8 61.6002 115.8C43.5402 115.8 24.6002 108.45 13.4202 92.8599C24.1802 110.52 44.4202 118.8 63.6002 118.8C79.0002 118.8 93.4002 113.6 104 104.3C115.5 94.0999 121.6 79.7999 121.6 62.8999C121.6 50.1599 118.13 38.8399 111.49 29.6699Z" fill="#EB8F00" style="fill:#EB8F00;fill:color(display-p3 0.9216 0.5608 0.0000);fill-opacity:1;"/>
<path d="M92.0836 78.7993L44.0768 92.7759C41.9549 93.3936 39.7359 92.1753 39.1181 90.0534C38.5004 87.9315 39.7186 85.7125 41.8405 85.0948L89.8474 71.1182C91.9693 70.5004 94.1883 71.7187 94.806 73.8406C95.4238 75.9625 94.2055 78.1815 92.0836 78.7993Z" fill="#422B0D" style="fill:#422B0D;fill:color(display-p3 0.2588 0.1686 0.0510);fill-opacity:1;"/>
<path d="M44.6699 45.9399C40.4799 45.9399 36.6699 49.4799 36.6699 55.3599C36.6699 61.2399 40.4799 64.7699 44.6699 64.7699C48.8599 64.7699 52.6699 61.2299 52.6699 55.3599C52.6699 49.4899 48.8599 45.9399 44.6699 45.9399Z" fill="#422B0D" style="fill:#422B0D;fill:color(display-p3 0.2588 0.1686 0.0510);fill-opacity:1;"/>
<path d="M44.2799 49.8701C42.8599 49.1901 41.1499 49.7901 40.4599 51.2101C39.9299 52.3201 40.1699 53.6501 41.0599 54.5101C42.4799 55.1901 44.1899 54.5901 44.8799 53.1701C45.4099 52.0601 45.1699 50.7301 44.2799 49.8701Z" fill="#896024" style="fill:#896024;fill:color(display-p3 0.5373 0.3765 0.1412);fill-opacity:1;"/>
<path d="M83 45.9399C78.81 45.9399 75 49.4799 75 55.3599C75 61.2399 78.81 64.7699 83 64.7699C87.19 64.7699 91 61.2299 91 55.3599C91 49.4899 87.21 45.9399 83 45.9399Z" fill="#422B0D" style="fill:#422B0D;fill:color(display-p3 0.2588 0.1686 0.0510);fill-opacity:1;"/>
<path d="M82.63 49.8701C81.21 49.1901 79.5 49.7901 78.81 51.2101C78.28 52.3201 78.52 53.6501 79.41 54.5101C80.83 55.1901 82.54 54.5901 83.23 53.1701C83.76 52.0601 83.52 50.7301 82.63 49.8701Z" fill="#896024" style="fill:#896024;fill:color(display-p3 0.5373 0.3765 0.1412);fill-opacity:1;"/>
<defs>
<radialGradient id="paint0_radial_2452_412" cx="0" cy="0" r="1" gradientUnits="userSpaceOnUse" gradientTransform="translate(63.6001 62.8999) scale(56.9597 56.9597)">
<stop offset="0.5" stop-color="#FDE030" style="stop-color:#FDE030;stop-color:color(display-p3 0.9922 0.8784 0.1882);stop-opacity:1;"/>
<stop offset="0.92" stop-color="#F7C02B" style="stop-color:#F7C02B;stop-color:color(display-p3 0.9686 0.7529 0.1686);stop-opacity:1;"/>
<stop offset="1" stop-color="#F4A223" style="stop-color:#F4A223;stop-color:color(display-p3 0.9569 0.6353 0.1373);stop-opacity:1;"/>
</radialGradient>
</defs>
</svg>

<?xml version="1.0" encoding="utf-8"?>
<!-- Generator: Adobe Illustrator 25.2.3, SVG Export Plug-In . SVG Version: 6.00 Build 0)  -->
<svg version="1.1" id="Raised-Hand" xmlns="http://www.w3.org/2000/svg" xmlns:xlink="http://www.w3.org/1999/xlink" x="0px"
	 y="0px" viewBox="0 0 128 128" style="enable-background:new 0 0 128 128;" xml:space="preserve">
<radialGradient id="face_1_" cx="63.6" cy="-7019.0771" r="56.9597" gradientTransform="matrix(1 0 0 -1 0 -6956.1772)" gradientUnits="userSpaceOnUse">
	<stop  offset="0.5" style="stop-color:#FDE030"/>
	<stop  offset="0.9188" style="stop-color:#F7C02B"/>
	<stop  offset="1" style="stop-color:#F4A223"/>
</radialGradient>
<path id="face_73_" style="fill:url(#face_1_);" d="M63.6,118.8c-27.9,0-58-17.5-58-55.9S35.7,7,63.6,7c15.5,0,29.8,5.1,40.4,14.4
	c11.5,10.2,17.6,24.6,17.6,41.5s-6.1,31.2-17.6,41.4C93.4,113.6,79,118.8,63.6,118.8z"/>
<path style="fill:#EB8F00;" d="M111.49,29.67c5.33,8.6,8.11,18.84,8.11,30.23c0,16.9-6.1,31.2-17.6,41.4
	c-10.6,9.3-25,14.5-40.4,14.5c-18.06,0-37.04-7.35-48.18-22.94c10.76,17.66,30.99,25.94,50.18,25.94c15.4,0,29.8-5.2,40.4-14.5
	c11.5-10.2,17.6-24.5,17.6-41.4C121.6,50.16,118.13,38.84,111.49,29.67z"/>
<path style="fill:#422B0D;" d="M44.67,45.94L44.67,45.94c-4.19,0-8,3.54-8,9.42s3.81,9.42,8,9.42l0,0c4.19,0,8-3.54,8-9.42
	S48.86,45.94,44.67,45.94z"/>
<g>
	<g id="peepers_57_">
		<path style="fill:#896024;" d="M44.28,49.87L44.28,49.87c-1.03-0.72-2.58-0.49-3.58,0.95c-1,1.45-0.67,2.97,0.36,3.69l0,0
			c1.03,0.72,2.58,0.49,3.58-0.95C45.64,52.11,45.31,50.59,44.28,49.87z"/>
	</g>
</g>
<path style="fill:#422B0D;" d="M83.02,45.94L83.02,45.94c-4.19,0-8,3.54-8,9.42s3.81,9.42,8,9.42l0,0c4.19,0,8-3.54,8-9.42
	S87.21,45.94,83.02,45.94z"/>
<g>
	<g id="peepers_56_">
		<path style="fill:#896024;" d="M82.63,49.87L82.63,49.87c-1.03-0.72-2.58-0.49-3.58,0.95c-1,1.45-0.67,2.97,0.36,3.69l0,0
			c1.03,0.72,2.58,0.49,3.58-0.95C84,52.11,83.67,50.59,82.63,49.87z"/>
	</g>
</g>
<path style="fill:#422B0D;" d="M89.3,79.3c-2.83,1.7-9.46,4.7-21.51,9.86c-0.02,0.01-0.04,0.02-0.05,0.02
	c-0.02,0.01-0.04,0.01-0.06,0.02c-12.06,5.16-18.8,7.88-21.99,8.75c-1.94,0.53-3.6-1.45-1.93-3.98c3.09-4.67,38.48-19.8,43.99-18.81
	C90.75,75.7,91.03,78.27,89.3,79.3z"/>
</svg>
